!!!!SEGMENT: pl-wtm--r-1518_stefani-jozef--pelne-radosci-zablyslo-swieto.krn
!!!cenid: 18xx:2237
!!!COM: Stefani, Józef
!!!COM-rismID:
!!!CDT: 1800/04/16-1876/03/19
!!!CNT: Polish
!!!OTL: Pełne radości zabłysło święto
!!!PDT:
!!!AGN:
!!!OMD: Andantino
!!!SMS-siglum: PL-Wtm
!!!SMS-shelfmark: R 1518
!!!SMS-shelfwork: W
!!!SMS-variant:
!!!SMS-altvar:
!!!NIFC-rismSourceID: 1001120395
!!!NIFC-islandoraID: pl-wtm:26187
!!!URL-pdf-islandora: https://repozytorium.nifc.pl/islandora/object/pl-wtm%3A26187/datastream/PDF/view
!!!URL-scan: https://polish.musicsources.pl/pl/lokalizacje/galeria/rekopisy/6324 @EN{Scan on Polish Music Herritage in Open Access Website} @PL{Skany w portalu Dziedzictwo Muzyki Polskiej w otwartym dostępie}
!!!ONB-nifc:
!!!AIN: 2 piano 1 vox
!!!key:
**kern	**kern	**dynam	**kern	**text	**text	**dynam
*part3	*part2	*part2	*part1	*part1	*part1	*part1
*staff3	*staff2	*	*staff1	*staff1	*staff1	*
*Ipiano	*Ipiano	*	*Ivox	*	*	*
*I"Piano	*I"Piano	*	*I"Spiew	*	*	*
*clefF4	*clefG2	*	*clefG2	*	*	*
*k[b-e-a-]	*k[b-e-a-]	*	*k[b-e-a-]	*	*	*
*E-:	*E-:	*	*E-:	*	*	*
*M3/8	*M3/8	*	*M3/8	*	*	*
=1	=1	=1	=1	=1	=1	=1
!	!	!LO:DY:rj	!	!	!	!
4.E-/ 4.EE-/	4.ee-/ 4.b-/ 4.g/	f	4.r	.	.	.
=2	=2	=2	=2	=2	=2	=2
4A-/ 4AA-/	4cc\ 4a-\	.	4.r	.	.	.
8F/ 8FF/	8ff\ 8cc\ 8a-\	.	.	.	.	.
=3	=3	=3	=3	=3	=3	=3
4.A-\ 4.F\ 4.BB-\	(16an\LL	.	4.r	.	.	.
.	16b-\	.	.	.	.	.
.	16bn\	.	.	.	.	.
.	16cc\	.	.	.	.	.
.	16cc#X\	.	.	.	.	.
.	16dd\JJ	.	.	.	.	.
=4	=4	=4	=4	=4	=4	=4
4G\ 4E-\	4ee-\)	.	4.r	.	.	.
8r	8r	.	.	.	.	.
!!LO:LB:g=original
=5	=5	=5	=5	=5	=5	=5
4.B-\ 4.BB-\	4.dd/ 4.b-/ 4.f/	.	4.ryy	.	.	.
=6	=6	=6	=6	=6	=6	=6
4E-/ 4EE-/	4g/ 4e-/	.	4.ryy	.	.	.
8C/ 8CC/	8cc/ 8g/ 8e-/	.	.	.	.	.
=7	=7	=7	=7	=7	=7	=7
4.e-\ 4.An\ 4.F\	(16ff\LL	.	4.ryy	.	.	.
.	16een\	.	.	.	.	.
.	16gg\	.	.	.	.	.
.	16ff\	.	.	.	.	.
.	16ee-X\	.	.	.	.	.
.	16cc\JJ)	.	.	.	.	.
=8	=8	=8	=8	=8	=8	=8
8d\ 8B-\	16.b-\LL	.	4.ryy	.	.	.
.	32b-\JJk	.	.	.	.	.
8r	8b-\L	.	.	.	.	.
8r	8b-\J	>	.	.	.	.
*clefG2	*	*	*	*	*	*
=9	=9	=9	=9	=9	=9	=9
!	!LO:N:vis=8.	!	!	!	!	!
4.a-X/ 4.f/	16.r	.	4.ryy	.	.	.
!	!LO:N:vis=16	!	!	!	!	!
.	32b-\	.	.	.	.	.
.	8b-\L	.	.	.	.	.
.	8b-\J	.	.	.	.	.
=10	=10	=10	=10	=10	=10	=10
*	*rep	*	*	*	*	*
!	!LO:N:vis=8.	!	!	!	!	!
4.g/ 4.e-/	16.r	.	4.ryy	.	.	.
!	!LO:N:vis=16	!	!	!	!	!
.	32b-\	.	.	.	.	.
.	8b-\L	.	.	.	.	.
.	8b-\J	.	.	.	.	.
*	*Xrep	*	*	*	*	*
=11	=11	=11	=11	=11	=11	=11
*	*rep	*	*	*	*	*
!	!LO:N:vis=8.	!	!	!	!	!
4.f/ 4.B-/	16.r	.	4.ryy	.	.	.
!	!LO:N:vis=16	!	!	!	!	!
.	32b-\	.	.	.	.	.
.	8b-\L	.	.	.	.	.
!	!LO:TX:b:t=V&colon;S&colon;	!	!	!	!	!
.	8b-\J	]]	.	.	.	.
*	*Xrep	*	*	*	*	*
*clefF4	*	*	*	*	*	*
!!LO:PB:g=original
=12	=12	=12	=12	=12	=12	=12
!	!	!LO:DY:rj	!	!	!	!
4.E-/ 4.EE-/	(16g/LL 16e-/	p	8g/	Peł-	.	.
.	16B-/	.	.	.	.	.
.	16g/ 16e-/	.	8.g/	-ne	.	.
.	16B-/	.	.	.	.	.
.	16a-/ 16f/)	.	.	.	.	.
.	16B-/JJ	.	16a-/	ra-	.	.
=13	=13	=13	=13	=13	=13	=13
8E-/ 8EE-/	8b-/ 8g/	.	8b-/	-do-	.	.
4E-/ 4EE-/	4g/ 4e-/	.	4g/	-ści	.	.
=14	=14	=14	=14	=14	=14	=14
4.D/ 4.DD/	(16a-/LL 16f/	.	8a-/	za-	.	.
.	16B-/	.	.	.	.	.
.	16a-/ 16f/	.	8.a-/	-bły-	.	.
.	16B-/	.	.	.	.	.
.	16b-/ 16f/	.	.	.	.	.
.	16B-/JJ)	.	16b-/	-sło	.	.
=15	=15	=15	=15	=15	=15	=15
8E-/ 8EE-/	8g/ 8e-/	.	8g/	świę-	.	.
4BB-/ 4BBB-/	4f/ 4d/	.	4f/	-to,	.	.
=16	=16	=16	=16	=16	=16	=16
4C/ 4CC/	16e-/LL 16c/	.	8e-/	Wi-	.	.
.	(16G/	.	.	.	.	.
.	16e-/ 16c/	.	8.e-/	-taj	.	.
.	16G/	.	.	.	.	.
8AA-/ 8AAA-/	16e-/ 16c/	.	.	.	.	.
.	16F/JJ)	.	16f/	nam	.	.
!!LO:LB:g=original
=17	=17	=17	=17	=17	=17	=17
8BB-/ 8BBB-/	8B-/ 8G/	.	(>16B-/LL	dro-	.	.
.	.	.	16e-/JJ)	.	.	.
4BB-/ 4BBB-/	4e-/ 4G/	.	4e-/	-gi	.	.
=18	=18	=18	=18	=18	=18	=18
8BB-/ 8BBB-/	16.B-/LL 16.G/	.	16.B-/LL	dla	.	.
.	32e-/JJk 32B-/ 32G/	.	32e-/JJk	.	.	.
8r	8g/L 8e-/ 8B-/	.	8g/	ser-	.	.
8BB-/ 8BBB-/	8f/J 8d/ 8B-/ 8A-/	.	8f/	-ca	.	.
=19	=19	=19	=19	=19	=19	=19
8E-/ 8EE-/	16e-/ 16B-/ 16G/	.	8e-/	dniu!	.	.
.	16b-/	.	.	.	.	.
8r	(16an/LL	<	8r	.	.	.
.	16b-/	.	.	.	.	.
8r	16cc/	.	8r	.	.	.
.	16dd/JJ)	[[	.	.	.	.
=20	=20	=20	=20	=20	=20	=20
!	!	!LO:DY:rj	!	!	!	!
8c\L 8C\	8ee-\L 8g\	f	4.r	.	.	.
8c\ 8C\	8ee-\ 8g\	.	.	.	.	.
8A-\J 8AA-\	8ff\J 8cc\ 8f\	.	.	.	.	.
=21	=21	=21	=21	=21	=21	=21
8B-\ 8BB-\	8b-\ 8g\	.	4.r	.	.	.
4B-\ 4BB-\	4ee-\ 4b-\ 4g\	.	.	.	.	.
=22	=22	=22	=22	=22	=22	=22
8BB-/ 8BBB-/	16.b-\LL 16.g\	.	4.r	.	.	.
.	32ee-\JJk 32b-\ 32g\	.	.	.	.	.
8B-\L 8G\ 8E-\ 8BB-\	8gg\L 8ee-\ 8b-\	.	.	.	.	.
8B-\J 8F\ 8BB-\	8ff\J 8dd\ 8a-\	.	.	.	.	.
!!LO:LB:g=original
=23	=23	=23	=23	=23	=23	=23
8B-\ 8G\ 8E-\	8ee-\ 8g\	.	4.r	.	.	.
8E-/ 8EE-/	8eee-\ 8gg\ 8ee-^<\	.	.	.	.	.
8r	8r	.	.	.	.	.
=24	=24	=24	=24	=24	=24	=24
8BB-/ 8BBB-/	8r	p	8f/	Z du-	.	.
8rGG	8f/L 8d/ 8B-/ 8F</	.	8.f/	-szą	.	.
8rGG	8f/J 8d/ 8B-/ 8F</	.	.	.	.	.
.	.	.	16b-/	przy-	.	.
=25	=25	=25	=25	=25	=25	=25
8C/ 8CC/	8r	.	8b-/	-ia-	.	.
8rGG	8f/L 8e-/ 8An/ 8F</	.	4an/	-źni	.	.
8rGG	8f/J 8e-/ 8A/ 8F</	.	.	.	.	.
=26	=26	=26	=26	=26	=26	=26
8AAn/ 8AAAn/	8r	.	(16g/LL	czu-	.	.
.	.	.	32an/L	.	.	.
.	.	.	32g/JJJ	.	.	.
8rGG	8f/L 8e-/ 8c/ 8F</	.	8f/)	ciem	.	.
8rGG	8f/J 8e-/ 8c/ 8F</	.	8e-/	prze-	.	.
=27	=27	=27	=27	=27	=27	=27
8BB-/ 8BBB-/	8r	.	8d/	-ię-	.	.
8rGG	8f/L 8d/ 8B-/ 8F</	.	4f/	-tą,	.	.
8rGG	8f/J 8d/ 8B-/ 8F</	.	.	.	.	.
!!LO:LB:g=original
=28	=28	=28	=28	=28	=28	=28
8BB-/ 8BBB-/	8r	.	8f/	Ca-	Ma-	.
8rGG	8f/L 8d/ 8B-/ 8F</	.	8dd\	-łe	-łe	.
8D\ 8DD\	8f/J 8B-/ 8F</	.	8b-\	się	.	.
=29	=29	=29	=29	=29	=29	=29
8E-/ 8EE-/	8r	.	4g/	gro-	.	.
8r	8e-/L 8c/ 8G/	.	.	.	.	.
8r	8e-/J 8c/ 8G/	.	8cc\	-no	.	.
=30	=30	=30	=30	=30	=30	=30
8F\ 8FF\	8r	.	(16en/LL	ze-	.	.
.	.	.	16f/JJ)	.	.	.
8rGG	8e-/L 8c/ 8An/ 8F</	.	(16f#X/LL	-bra-	.	.
.	.	.	16g/JJ)	.	.	.
8rGG	8e-/J 8c/ 8A/ 8F</	.	(16a-/LL	-ło	.	.
.	.	.	16an/JJ)	.	.	.
=31	=31	=31	=31	=31	=31	=31
8BB-\ 8BBB-\	8d/ 8B-/ 8F</	.	8b-/	tu!	.	.
8r	8r	.	8r	.	.	.
8r	8f/	f	8r	.	.	.
=32	=32	=32	=32	=32	=32	=32
8BB-/ 8BBB-/	(32g/LLL	.	4.r	.	.	.
.	32f/	.	.	.	.	.
.	32en/	.	.	.	.	.
.	32f/JJJ	.	.	.	.	.
8d\L 8B-\ 8F\	8dd/L)	.	.	.	.	.
8B-\J 8F\ 8D\	8b-/J	.	.	.	.	.
!!LO:PB:g=original
=33	=33	=33	=33	=33	=33	=33
8E-/ 8EE-/	(32an/LLL	.	4.r	.	.	.
.	32g/	.	.	.	.	.
.	32f#X/	.	.	.	.	.
.	32g/JJJ)	.	.	.	.	.
8c\L 8G\ 8E-\	8ee-\L	.	.	.	.	.
8c\J 8G\ 8E-\	8cc\J	.	.	.	.	.
=34	=34	=34	=34	=34	=34	=34
*tremolo	*	*	*	*	*	*
8e-\L 8c\ 8F\	(16een\LL	.	4.r	.	.	.
.	16ff\	.	.	.	.	.
8e-\ 8c\ 8F\	16ff#X\	.	.	.	.	.
.	16gg\	.	.	.	.	.
8e-\J 8c\ 8F\	16aa-\	.	.	.	.	.
.	16aan\JJ	.	.	.	.	.
*Xtremolo	*	*	*	*	*	*
=35	=35	=35	=35	=35	=35	=35
!LO:TX:t=P:problem=mixed beam	!	!	!	!	!	!
8d\L 8B-\	8bb-\L)	.	4.r	.	.	.
8BB-/J	8b-\J	.	.	.	.	.
8r	8r	p	.	.	.	.
=36	=36	=36	=36	=36	=36	=36
8D/ 8DD/	8r	.	8a-/	Two-	.	.
8r	8a-X/L 8f/ 8B-/	.	8.f/	-je	.	.
8BB-/ 8BBB-/	8a-/J 8f/ 8B-/	.	.	.	.	.
.	.	.	16b-/	tro-	.	.
=37	=37	=37	=37	=37	=37	=37
8E-/ 8EE-/	8r	.	8b-/	-skli-	.	.
8r	8g/L 8e-/ 8B-/	.	4g/	-we	.	.
8D/ 8BB-/ 8BBB-/	8g/J 8e-/ 8B-/	.	.	.	.	.
!!LO:LB:g=original
=38	=38	=38	=38	=38	=38	=38
8D/ 8DD/	8r	.	8a-/	two-	.	.
8r	8a-/L 8f/ 8B-/	.	8.f/	-je	.	.
8BB-/ 8BBB-/	8a-/J 8f/ 8B-/	.	.	.	.	.
.	.	.	16b-/	sta-	.	.
=39	=39	=39	=39	=39	=39	=39
8E-/ 8EE-/	8r	.	8b-/	-ra-	.	.
8r	8g/L 8e-/ 8B-/	.	4g/	-nie	.	.
8BB-/ 8BBB-/	8g/J 8e-/ 8B-/	.	.	.	.	.
=40	=40	=40	=40	=40	=40	=40
8E-/L 8EE-/	8g/L 8e-/ 8B-/	.	(8g/L	Zle-	.	.
8D/ 8DD/	8an/ 8f#X/ 8d/	.	8an/J)	.	.	.
8G/J 8GG/	8b-/J 8g/ 8d/	.	8b-/	-wa	.	.
=41	=41	=41	=41	=41	=41	=41
4C/ 4CC/	4an/ 4e-/ 4c/	.	4an/	na	.	.
8C/ 8CC/	8a/ 8e-/ 8c/	.	8a/	mnie	.	.
=42	=42	=42	=42	=42	=42	=42
8D/ 8DD/	8r	.	(8an/L	ty-	.	.
.	.	.	(8qcc/	.	.	.
8r	8f#X/;L 8d/ 8c/ 8An/	.	8b-/J));	.	.	.
8r	8f#/J 8d/ 8c/ 8A/	.	8a/	-le	.	.
=43	=43	=43	=43	=43	=43	=43
8G/ 8GG/	8g/ 8d/ 8B-/	.	8g/	łask	.	.
8r	8r	.	8r	.	.	.
8r	8ddd\ 8dd\	.	8r	.	.	.
!!LO:LB:g=original
=44	=44	=44	=44	=44	=44	=44
!	!	!LO:DY:rj	!	!	!	!
8BB-/ 8BBB-/	8ddd\L 8dd\	f	4.r	.	.	.
8G\L 8D\ 8BB-\	16ccc\L 16cc\	.	.	.	.	.
.	16bb-\ 16b-\	.	.	.	.	.
8G\J 8D\ 8BB-\	16aan\ 16an\	.	.	.	.	.
.	16gg\JJ 16g\	.	.	.	.	.
=45	=45	=45	=45	=45	=45	=45
8C/ 8CC/	8eee-\L 8ee-\	.	4.r	.	.	.
8An\L 8E-\ 8C\	16ddd\L 16dd\	.	.	.	.	.
.	16ccc\ 16cc\	.	.	.	.	.
8A\J 8E-\ 8C\	16bb-\ 16b-\	.	.	.	.	.
.	16aan\JJ 16an\	.	.	.	.	.
=46	=46	=46	=46	=46	=46	=46
8D/ 8DD/	16gg\LL 16g\	.	4.r	.	.	.
.	[16dd\JJ	.	.	.	.	.
8B-\L 8G\ 8D\	8bb-\L 8dd\]	.	.	.	.	.
8d\J 8An\ 8F\ 8D\	8aan\J 8cc\	.	.	.	.	.
=47	=47	=47	=47	=47	=47	=47
8d\ 8B-\ 8G\	8gg\ 8b-\	.	4.r	.	.	.
8G/ 8GG/	8ggg\ 8bb-\ 8gg\	.	.	.	.	.
8r	8r	.	.	.	.	.
=48	=48	=48	=48	=48	=48	=48
4.D/ 4.DD/	8r	p	4b-\	Twa	.	.
.	8b-/L 8f/ 8B-/	.	.	.	.	.
.	8a-/J 8f/ 8B-/	.	8b-\	o-	.	.
=49	=49	=49	=49	=49	=49	=49
4.E-/ 4.EE-/	8r	.	8cc\	-pie-	.	.
.	8g/L 8e-/ 8B-/	.	4b-\	-ka,	.	.
.	8g/J 8e-/ 8B-/	.	.	.	.	.
!!LO:LB:g=original
=50	=50	=50	=50	=50	=50	=50
4.D/ 4.DD/	8r	.	4b-\	przy-	.	.
.	8b-/L 8f/ 8B-/	.	.	.	.	.
.	8a-/J 8f/ 8B-/	.	8b-\	-wią-	.	.
=51	=51	=51	=51	=51	=51	=51
4.E-/ 4.EE-/	8r	.	8cc\	-za-	.	.
.	8g/L 8e-/ 8B-/	.	4b-\	-nie,	.	.
.	8g/J 8e-/ 8B-/	.	.	.	.	.
=52	=52	=52	=52	=52	=52	=52
8E-/L 8EE-/	8r	.	(8g/L	Chce	.	.
8C/ 8CC/	8ee-/L 8g/	.	8ee-/J)	.	.	.
8E-/J 8EE-/	8cc/J 8g/ 8e-/	.	8cc\	przy-	.	.
=53	=53	=53	=53	=53	=53	=53
8F/ 8FF/	8r	.	4b-\	-szło-	.	.
8r	8b-/L 8f/ 8d/	.	.	.	.	.
8F/ 8FF/	8f/J 8d/ 8B-/	.	8f/	-ści	.	.
=54	=54	=54	=54	=54	=54	=54
8F/ 8FF/	8r	.	(8.g/L	wzmo-	.	.
8r	8an/L 8f/ 8e-/ 8c/	.	.	.	.	.
.	.	.	16f/Jk)	.	.	.
8F/ 8FF/	8a/J 8f/ 8e-/ 8c/	.	(16e-/LL	-cnić	.	.
.	.	.	16c/JJ)	.	.	.
=55	=55	=55	=55	=55	=55	=55
8B-\ 8BB-\	8b-/ 8f/ 8d/	.	8B-/	blask!	.	.
8r	8r	.	4b-\	Ah	.	.
8r	8r	.	.	.	.	.
!!LO:PB:g=original
=56	=56	=56	=56	=56	=56	=56
!	!	!LO:DY:rj	!	!	!	!
4.E-/ 4.EE-/	(16g/LL 16e-/	p	8g/	Ja-	.	.
.	16B-/	.	.	.	.	.
.	16g/ 16e-/	.	8.g/	-kiz	.	.
.	16B-/	.	.	.	.	.
.	16a-/ 16f/	.	.	.	.	.
.	16B-/JJ)	.	16a-/	Ci	.	.
=57	=57	=57	=57	=57	=57	=57
8E-/ 8EE-/	8b-/ 8g/	.	8b-/	do-	.	.
4E-/ 4EE-/	4g/ 4e-/	.	4g/	-wód	.	.
=58	=58	=58	=58	=58	=58	=58
4.D/ 4.DD/	(16a-/LL 16f/	.	8a-/	wdzię-	.	.
.	16B-/	.	.	.	.	.
.	16a-/ 16f/	.	8.a-/	-czno-	.	.
.	16B-/	.	.	.	.	.
.	16b-/ 16f/	.	.	.	.	.
.	16B-/JJ)	.	16b-/	-ści	.	.
=59	=59	=59	=59	=59	=59	=59
8E-/ 8EE-/	8g/ 8e-/	.	8g/	zło-	.	.
4BB-/ 4BBB-/	4f/ 4d/	.	4f/	-żę	.	.
=60	=60	=60	=60	=60	=60	=60
4C/ 4CC/	(16e-/LL 16c/	.	8e-/	Ją	.	.
.	16G/	.	.	.	.	.
.	16e-/ 16c/	.	8.e-/	w głę-	.	.
.	16G/	.	.	.	.	.
8AA-/ 8AAA-/	16f/ 16c/	.	.	.	.	.
.	16F/JJ)	.	16f/	-bi	.	.
!!LO:LB:g=original
=61	=61	=61	=61	=61	=61	=61
8BB-/ 8BBB-/	8B-/ 8G/	.	(16B-/LL	du-	.	.
.	.	.	16e-/JJ)	.	.	.
4BB-/ 4BBB-/	4e-/ 4G/	.	4e-/	-szy	.	.
=62	=62	=62	=62	=62	=62	=62
8BB-/ 8BBB-/	16.B-/LL 16.G/	.	(16.B-/LL	Bóg	.	.
.	32e-/JJk 32B-/ 32G/	.	32e-/JJk)	.	.	.
8r	8g/L 8e-/ 8B-/	.	8g/	wi-	.	.
8BB-/ 8BBB-/	8f/J 8d/ 8B-/ 8A-/	.	8f/	-dzi	.	.
=63	=63	=63	=63	=63	=63	=63
8E-/ 8EE-/	8e-/ 8B-/ 8G/	.	8e-/	sam,	.	.
!	!	!LO:DY:rj	!	!	!	!
8E-/ 8EE-/	8ee-/ 8b-/ 8g/ 8e-^/	f	8r	.	.	.
8r	8r	.	(>8g/	Za	.	.
=64	=64	=64	=64	=64	=64	=64
!	!	!LO:DY:rj	!	!	!	!
8BB-/ 8BBB-/	8r	p	8f/)	.	.	.
8rGG	8f/L 8d/ 8B-/ 8F</	.	8.f/	mi-	.	.
8rGG	8f/J 8d/ 8B-/ 8F</	.	.	.	.	.
.	.	.	16b-/	-łość	.	.
=65	=65	=65	=65	=65	=65	=65
8C/ 8CC/	8r	.	8b-/	mi-	.	.
8rGG	8f/L 8e-/ 8An/ 8F</	.	4an/	-łość	.	.
8rGG	8f/J 8e-/ 8A/ 8F</	.	.	.	.	.
!!LO:LB:g=original
=66	=66	=66	=66	=66	=66	=66
8AAn/ 8AAAn/	8r	.	(16g/LL	skła-	.	.
.	.	.	32an/L	.	.	.
.	.	.	32g/JJJ)	.	.	.
8rGG	8f/L 8e-/ 8c/ 8F</	.	8f/	-dam	.	.
8rGG	8f/J 8e-/ 8c/ 8F</	.	8e-/	w po-	.	.
=67	=67	=67	=67	=67	=67	=67
8BB-/ 8BBB-/	8r	.	8d/	-ko-	.	.
8rGG	8f/L 8d/ 8B-/ 8F</	.	4f/	-rże	.	.
8rGG	8f/J 8d/ 8B-/ 8F</	.	.	.	.	.
=68	=68	=68	=68	=68	=68	=68
8BB-/ 8BBB-/	8r	.	8f/	Za	.	.
8rGG	8f/L 8d/ 8B-/ 8F</	.	8dd\	twe	.	.
8D\ 8DD\	8f/J 8B-/ 8F</	.	8b-\	sta-	.	.
=69	=69	=69	=69	=69	=69	=69
8E-\ 8EE-\	8r	.	4g/	-ra-	.	.
8rGG	8e-/L 8c/ 8G</	.	.	.	.	.
8rGG	8e-/J 8c/ 8G</	.	8cc\	-ni	.	.
=70	=70	=70	=70	=70	=70	=70
!	!	!	!	!	!	!LO:HP:a
8F\ 8FF\	8r	.	(16en/LL	ser-	.	<
.	.	.	16f/JJ)	.	.	.
8rGG	8e-/L 8c/ 8F</	.	(16f#X/LL	-ce	.	.
.	.	.	16g/JJ)	.	.	.
8rGG	8e-/J 8c/ 8F</	.	(16a-'/LL	Ci	.	.
.	.	.	16an/JJ)	.	.	[[
!!LO:LB:g=original
=71	=71	=71	=71	=71	=71	=71
8BB-/ 8BBB-/	8r	.	8b-\	dam	.	.
8rGG	8d/L 8B-/ 8F</	.	8r	.	.	.
8rGG	8d/J 8B-/ 8F</	.	(8b-\	Za	.	.
=72	=72	=72	=72	=72	=72	=72
4.AA-X\ 4.AAA-X\	8r	.	8cc\)	.	.	.
.	8d/L 8B-/ 8F</	.	8b-\	twe	.	.
.	8d/J 8B-/ 8F</	.	8b-\	sta-	.	.
=73	=73	=73	=73	=73	=73	=73
4.GG\ 4.GGG\	8r	.	4cc\	-ra-	.	.
.	8e-/L 8B-/ 8E-</	.	.	.	.	.
.	8e-/J 8B-/ 8E-</	.	8b-\	-nia	.	.
=74	=74	=74	=74	=74	=74	=74
4AA-/ 4AAA-/	8r	.	8a-/	ser-	.	.
.	8c/ 8A-/	.	8c/	-ce	.	.
8BB-\ 8BBB-\;	8d/ 8B-;/ 8A-</ 8F</	.	8d;/	Ci	.	.
=75	=75	=75	=75	=75	=75	=75
8E-\ 8EE-\	8d/ 8B-/ 8G</	.	8e-/	dam!	.	.
8r	8r	.	8r	.	.	.
8r	8r	.	8e-/	la	.	.
!!LO:PB:g=original
=76	=76	=76	=76	=76	=76	=76
!	!	!LO:DY:rj	!	!	!	!LO:DY:a:rj
8BB-/ 8BBB-/	8r	p	(8.d/L	.	.	f
8r	8a-/L 8f/ 8d/ 8B-/	.	.	.	.	.
.	.	.	16f/L	.	.	.
8r	8a-/J 8f/ 8d/ 8B-/	.	16a-/	.	.	.
.	.	.	16cc/JJ)	.	.	.
=77	=77	=77	=77	=77	=77	=77
*rep	*	*	*	*	*	*
8BB-/ 8BBB-/	8r	.	(8b-/L	.	.	.
8r	8g/L 8e-/ 8B-/	.	8g/J)	.	.	.
8r	8g/J 8e-/ 8B-/	.	8ee-'\	.	.	.
*Xrep	*	*	*	*	*	*
=78	=78	=78	=78	=78	=78	=78
*rep	*	*	*	*	*	*
8BB-/ 8BBB-/	8r	.	(8.ff\L	.	.	.
8r	8a-/L 8f/ 8d/ 8B-/	.	.	.	.	.
.	.	.	16dd\L	.	.	.
8r	8a-/J 8f/ 8d/ 8B-/	.	16b-\	.	.	.
.	.	.	16a-\JJ)	.	.	.
*Xrep	*	*	*	*	*	*
=79	=79	=79	=79	=79	=79	=79
*rep	*	*	*	*	*	*
8BB-/ 8BBB-/	8r	.	8g/	.	.	.
8r	8g/L 8e-/ 8B-/	.	4b-/	.	.	.
8r	8g/J 8e-/ 8B-/	.	.	.	.	.
*Xrep	*	*	*	*	*	*
=80	=80	=80	=80	=80	=80	=80
*rep	*	*	*	*	*	*
!	!	!	!	!	!	!LO:DY:a
8BB-/ 8BBB-/	8r	.	(8.d/L	.	.	p
8r	8a-/L 8f/ 8d/ 8B-/	.	.	.	.	.
.	.	.	16f/L	.	.	.
8r	8a-/J 8f/ 8d/ 8B-/	.	16a-/	.	.	.
.	.	.	16cc/JJ)	.	.	.
*Xrep	*	*	*	*	*	*
!!LO:LB:g=original
=81	=81	=81	=81	=81	=81	=81
8E-/ 8EE-/	8r	.	8b-/L	.	.	.
8r	8g/L 8e-/ 8B-/	.	8g/J	.	.	.
8r	8g/J 8e-/ 8B-/	.	8ee-\	.	.	.
=82	=82	=82	=82	=82	=82	=82
!	!	!	!	!	!	!LO:DY:a:rj
8AA-/L 8AAA-/	8a-/L 8f/ 8c/	.	(16dd\LL	.	.	f
.	.	.	16cc\JJ)	.	.	.
8BB-/ 8BBB-/	8a-/ 8f/ 8d/ 8B-/	.	(16b-/LL	.	.	.
.	.	.	16a-/JJ)	.	.	.
8BB-/J 8BBB-/	8a-/J 8f/ 8d/ 8B-/	.	(16g/LL	.	.	.
.	.	.	16f/JJ)	.	.	.
=83	=83	=83	=83	=83	=83	=83
8E-/ 8EE-/	8g/ 8e-/ 8B-/	.	8e-/	.	.	.
8r	8r	.	8r	.	.	.
8r	8b-\	f	8r	.	.	.
=84	=84	=84	=84	=84	=84	=84
4.E-/ 4.EE-/	4.ee-\ 4.b-\ 4.g\	.	4.r	.	.	.
=85	=85	=85	=85	=85	=85	=85
4A-/ 4AA-/	4cc\ 4a-\	.	4.r	.	.	.
8F/ 8FF/	8ff\ 8cc\ 8a-\	.	.	.	.	.
!!LO:LB:g=original
=86	=86	=86	=86	=86	=86	=86
4.A-\ 4.F\ 4.BB-\	(16an\LL	.	4.r	.	.	.
.	16b-\	.	.	.	.	.
.	16bn\	.	.	.	.	.
.	16cc\	.	.	.	.	.
.	16cc#X\	.	.	.	.	.
.	16dd\JJ)	.	.	.	.	.
=87	=87	=87	=87	=87	=87	=87
4.G\ 4.E-\	4.ee-\	.	4.r	.	.	.
=88	=88	=88	=88	=88	=88	=88
4.c\ 4.C\	4.ee-\ 4.cc\ 4.g\	.	4.r	.	.	.
=89	=89	=89	=89	=89	=89	=89
!	!LO:N:vis=8	!	!	!	!	!
4A-\ 4AA-\	4ff\ 4cc\ 4a-\	.	4.r	.	.	.
8F/ 8FF/	8aa-\ 8ff\ 8cc\	.	.	.	.	.
=90	=90	=90	=90	=90	=90	=90
4.A-\ 4.D\ 4.BB-\	(16bb-\LL	.	4.r	.	.	.
.	16aan\	.	.	.	.	.
.	16ccc\	.	.	.	.	.
.	16bb-\	.	.	.	.	.
.	16aa-X\	.	.	.	.	.
.	16ff\JJ	.	.	.	.	.
=91	=91	=91	=91	=91	=91	=91
8G\ 8E-\	8ee-\)	.	4.r	.	.	.
8r	8r	.	.	.	.	.
8r	8r	.	.	.	.	.
==	==	==	==	==	==	==
*-	*-	*-	*-	*-	*-	*-
!!!system-decoration: s1{(s2,s3)}
!!!RDF**kern: > = above
!!!RDF**kern: < = below
!!!EED: Andrzej Borzym
!!!EEV: 2021-06-12
!!!ENC: Andrzej Gręziak
!!!END: 2021-05-20
